img/sponsors/luhnar-dark.svg

<?xml version="1.0" encoding="UTF-8" standalone="no"?><!DOCTYPE svg PUBLIC "-//W3C//DTD SVG 1.1//EN" "http://www.w3.org/Graphics/SVG/1.1/DTD/svg11.dtd"><svg width="100%" height="100%" viewBox="0 0 3300 1280" version="1.1" xmlns="http://www.w3.org/2000/svg" xmlns:xlink="http://www.w3.org/1999/xlink" xml:space="preserve" xmlns:serif="http://www.serif.com/" style="fill-rule:evenodd;clip-rule:evenodd;stroke-linejoin:round;stroke-miterlimit:1.41421;"><rect id="Page-1" serif:id="Page 1" x="0" y="0" width="3300" height="1279.17" style="fill:none;"/><g id="Layer-1" serif:id="Layer 1"><path d="M304.796,313.913l0,546.712c0,12.996 6.091,16.7 17.992,16.7l431.833,0c0,0 -15.034,-90.471 -101.642,-90.471l-257.717,0l0,-472.967c-30.25,0 -90.466,0.025 -90.466,0.025Z" style="fill:url(#_Linear1);fill-rule:nonzero;"/><path d="M1266.04,314.975l0,562.35l89.783,0l0,-302.917c0,-3.191 1.596,-4.804 4.804,-4.804l214.504,0c3.188,0 4.792,1.613 4.792,4.804l0,302.917l89.779,0l0,-302.917c0,-26.05 -9.366,-48.32 -28.096,-66.825c-18.737,-18.5 -40.895,-27.758 -66.475,-27.758l-219.308,0l0,-164.85l-89.783,0Z" style="fill:url(#_Linear2);fill-rule:nonzero;"/><path d="M1749.64,479.825c-11.196,0 -17.134,8.029 -17.134,15.967l0,381.533l89.775,0l0,-302.917c0,-3.191 1.596,-4.804 4.804,-4.804l214.501,0c3.187,0 4.804,1.613 4.804,4.804l0,302.917l89.775,0l0,-302.917c0,-26.05 -9.259,-48.32 -27.755,-66.825c-18.504,-18.5 -40.787,-27.758 -66.824,-27.758l-291.946,0Z" style="fill:url(#_Linear3);fill-rule:nonzero;"/><path d="M2192.19,479.825c0,0 17.987,89.779 93.05,89.779l214.641,0c3.196,0 4.809,1.613 4.809,4.804l0,58.934l-224.325,0c-92.563,0 -89.563,81.133 -89.563,81.133l0,68.271c0,26.037 9.254,48.312 27.75,66.821c18.513,18.5 40.783,27.758 66.833,27.758l309.075,0l0.001,-302.917c-0.001,-26.05 -9.255,-48.32 -27.755,-66.825c-18.496,-18.5 -40.779,-27.758 -66.825,-27.758l-307.691,0Zm88.387,302.921l0,-62.859l224.113,0l0,67.655l-219.305,0c-3.212,0 -4.808,-1.592 -4.808,-4.796Z" style="fill:url(#_Linear4);fill-rule:nonzero;"/><path d="M2749.33,479.825c-26.041,0 -48.312,9.258 -66.804,27.758c-18.508,18.505 -27.766,40.775 -27.766,66.825l0,302.917l89.775,0l0,-302.917c0,-3.191 1.604,-4.804 4.795,-4.804l155.142,0c83.717,0 87.192,-89.779 87.192,-89.779l-242.334,0Z" style="fill:url(#_Linear5);fill-rule:nonzero;"/><path d="M655.8,561.896c0,165.1 131.042,298.942 287.642,298.942c156.6,0 287.633,-133.842 287.633,-298.942c0,-10.133 0,-22.729 -5.517,-30.013c-14.304,150.988 -135.15,256.6 -282.116,256.6c-146.988,0 -267.83,-105.625 -282.117,-256.625c-5.525,7.309 -5.525,19.9 -5.525,30.038Z" style="fill:url(#_Linear6);fill-rule:nonzero;"/></g><defs><linearGradient id="_Linear1" x1="0" y1="0" x2="1" y2="0" gradientUnits="userSpaceOnUse" gradientTransform="matrix(0,401.754,-401.754,0,529.709,483.333)"><stop offset="0" style="stop-color:#0f1527;stop-opacity:1"/><stop offset="1" style="stop-color:#1a194e;stop-opacity:1"/></linearGradient><linearGradient id="_Linear2" x1="0" y1="0" x2="1" y2="0" gradientUnits="userSpaceOnUse" gradientTransform="matrix(0,401.754,-401.754,0,1467.87,483.333)"><stop offset="0" style="stop-color:#0f1527;stop-opacity:1"/><stop offset="1" style="stop-color:#1a194e;stop-opacity:1"/></linearGradient><linearGradient id="_Linear3" x1="0" y1="0" x2="1" y2="0" gradientUnits="userSpaceOnUse" gradientTransform="matrix(0,401.754,-401.754,0,1934.34,483.333)"><stop offset="0" style="stop-color:#0f1527;stop-opacity:1"/><stop offset="1" style="stop-color:#1a194e;stop-opacity:1"/></linearGradient><linearGradient id="_Linear4" x1="0" y1="0" x2="1" y2="0" gradientUnits="userSpaceOnUse" gradientTransform="matrix(0,401.754,-401.754,0,2392.63,483.333)"><stop offset="0" style="stop-color:#0f1527;stop-opacity:1"/><stop offset="1" style="stop-color:#1a194e;stop-opacity:1"/></linearGradient><linearGradient id="_Linear5" x1="0" y1="0" x2="1" y2="0" gradientUnits="userSpaceOnUse" gradientTransform="matrix(0,401.754,-401.754,0,2823.22,483.333)"><stop offset="0" style="stop-color:#0f1527;stop-opacity:1"/><stop offset="1" style="stop-color:#1a194e;stop-opacity:1"/></linearGradient><linearGradient id="_Linear6" x1="0" y1="0" x2="1" y2="0" gradientUnits="userSpaceOnUse" gradientTransform="matrix(0,328.53,-328.53,0,943.438,520.833)"><stop offset="0" style="stop-color:#b45426;stop-opacity:1"/><stop offset="1" style="stop-color:#d77c28;stop-opacity:1"/></linearGradient></defs></svg>

<?xml version="1.0" encoding="UTF-8" standalone="no"?>
<!DOCTYPE svg PUBLIC "-//W3C//DTD SVG 1.1//EN" "http://www.w3.org/Graphics/SVG/1.1/DTD/svg11.dtd">
<svg width="100%" height="100%" viewBox="0 0 2687 564" version="1.1" xmlns="http://www.w3.org/2000/svg" xmlns:xlink="http://www.w3.org/1999/xlink" xml:space="preserve" xmlns:serif="http://www.serif.com/" style="fill-rule:evenodd;clip-rule:evenodd;stroke-linejoin:round;stroke-miterlimit:1.41421;">
    <g transform="matrix(1,0,0,1,-304.796,-313.887)">
        <path d="M304.796,313.913L304.796,860.625C304.796,873.621 310.887,877.325 322.788,877.325L754.621,877.325C754.621,877.325 739.587,786.854 652.979,786.854L395.262,786.854L395.262,313.887C365.012,313.887 304.796,313.912 304.796,313.912L304.796,313.913Z" style="fill:url(#_Linear1);fill-rule:nonzero;"/>
    </g>
    <g transform="matrix(1,0,0,1,-304.796,-313.887)">
        <path d="M1266.04,314.975L1266.04,877.325L1355.82,877.325L1355.82,574.408C1355.82,571.217 1357.42,569.604 1360.63,569.604L1575.13,569.604C1578.32,569.604 1579.92,571.217 1579.92,574.408L1579.92,877.325L1669.7,877.325L1669.7,574.408C1669.7,548.358 1660.34,526.088 1641.61,507.583C1622.87,489.083 1600.71,479.825 1575.13,479.825L1355.82,479.825L1355.82,314.975L1266.04,314.975Z" style="fill:url(#_Linear2);fill-rule:nonzero;"/>
    </g>
    <g transform="matrix(1,0,0,1,-304.796,-313.887)">
        <path d="M1749.64,479.825C1738.44,479.825 1732.51,487.854 1732.51,495.792L1732.51,877.325L1822.28,877.325L1822.28,574.408C1822.28,571.217 1823.88,569.604 1827.09,569.604L2041.59,569.604C2044.77,569.604 2046.39,571.217 2046.39,574.408L2046.39,877.325L2136.16,877.325L2136.16,574.408C2136.16,548.358 2126.91,526.088 2108.41,507.583C2089.91,489.083 2067.62,479.825 2041.59,479.825L1749.64,479.825Z" style="fill:url(#_Linear3);fill-rule:nonzero;"/>
    </g>
    <g transform="matrix(1,0,0,1,-304.796,-313.887)">
        <path d="M2192.19,479.825C2192.19,479.825 2210.18,569.604 2285.24,569.604L2499.88,569.604C2503.08,569.604 2504.69,571.217 2504.69,574.408L2504.69,633.342L2280.37,633.342C2187.8,633.342 2190.8,714.475 2190.8,714.475L2190.8,782.746C2190.8,808.783 2200.06,831.058 2218.55,849.567C2237.07,868.067 2259.34,877.325 2285.39,877.325L2594.46,877.325L2594.46,574.408C2594.46,548.358 2585.21,526.088 2566.71,507.583C2548.21,489.083 2525.93,479.825 2499.88,479.825L2192.19,479.825ZM2280.58,782.746L2280.58,719.887L2504.69,719.887L2504.69,787.542L2285.39,787.542C2282.17,787.542 2280.58,785.95 2280.58,782.746Z" style="fill:url(#_Linear4);fill-rule:nonzero;"/>
    </g>
    <g transform="matrix(1,0,0,1,-304.796,-313.887)">
        <path d="M2749.33,479.825C2723.29,479.825 2701.02,489.083 2682.53,507.583C2664.02,526.088 2654.76,548.358 2654.76,574.408L2654.76,877.325L2744.53,877.325L2744.53,574.408C2744.53,571.217 2746.14,569.604 2749.33,569.604L2904.47,569.604C2988.19,569.604 2991.66,479.825 2991.66,479.825L2749.33,479.825Z" style="fill:url(#_Linear5);fill-rule:nonzero;"/>
    </g>
    <g transform="matrix(1,0,0,1,-304.796,-313.887)">
        <path d="M655.8,561.896C655.8,726.996 786.842,860.838 943.442,860.838C1100.04,860.838 1231.08,726.996 1231.08,561.896C1231.08,551.763 1231.08,539.167 1225.56,531.883C1211.25,682.871 1090.41,788.483 943.442,788.483C796.454,788.483 675.612,682.858 661.325,531.858C655.8,539.167 655.8,551.758 655.8,561.896Z" style="fill:url(#_Linear6);fill-rule:nonzero;"/>
    </g>
    <defs>
        <linearGradient id="_Linear1" x1="0" y1="0" x2="1" y2="0" gradientUnits="userSpaceOnUse" gradientTransform="matrix(2.46003e-14,401.754,-401.754,2.46003e-14,529.709,483.333)"><stop offset="0" style="stop-color:rgb(15,21,39);stop-opacity:1"/><stop offset="1" style="stop-color:rgb(26,25,78);stop-opacity:1"/></linearGradient>
        <linearGradient id="_Linear2" x1="0" y1="0" x2="1" y2="0" gradientUnits="userSpaceOnUse" gradientTransform="matrix(2.46003e-14,401.754,-401.754,2.46003e-14,1467.87,483.333)"><stop offset="0" style="stop-color:rgb(15,21,39);stop-opacity:1"/><stop offset="1" style="stop-color:rgb(26,25,78);stop-opacity:1"/></linearGradient>
        <linearGradient id="_Linear3" x1="0" y1="0" x2="1" y2="0" gradientUnits="userSpaceOnUse" gradientTransform="matrix(2.46003e-14,401.754,-401.754,2.46003e-14,1934.34,483.333)"><stop offset="0" style="stop-color:rgb(15,21,39);stop-opacity:1"/><stop offset="1" style="stop-color:rgb(26,25,78);stop-opacity:1"/></linearGradient>
        <linearGradient id="_Linear4" x1="0" y1="0" x2="1" y2="0" gradientUnits="userSpaceOnUse" gradientTransform="matrix(2.46003e-14,401.754,-401.754,2.46003e-14,2392.63,483.333)"><stop offset="0" style="stop-color:rgb(15,21,39);stop-opacity:1"/><stop offset="1" style="stop-color:rgb(26,25,78);stop-opacity:1"/></linearGradient>
        <linearGradient id="_Linear5" x1="0" y1="0" x2="1" y2="0" gradientUnits="userSpaceOnUse" gradientTransform="matrix(2.46003e-14,401.754,-401.754,2.46003e-14,2823.22,483.333)"><stop offset="0" style="stop-color:rgb(15,21,39);stop-opacity:1"/><stop offset="1" style="stop-color:rgb(26,25,78);stop-opacity:1"/></linearGradient>
        <linearGradient id="_Linear6" x1="0" y1="0" x2="1" y2="0" gradientUnits="userSpaceOnUse" gradientTransform="matrix(2.01167e-14,328.53,-328.53,2.01167e-14,943.438,520.833)"><stop offset="0" style="stop-color:rgb(180,84,38);stop-opacity:1"/><stop offset="1" style="stop-color:rgb(215,124,40);stop-opacity:1"/></linearGradient>
    </defs>
</svg>
